X:1
T:Title
%%score ( 1 2 ) { 3 | 4 }
L:1/8
Q:1/4=110
M:4/4
K:Eb
V:1 treble nm="Grand Piano, Staff 1"
V:2 treble 
V:3 bass nm="Choir Pad, Jerusalem (Staniforth)"
V:4 bass 
V:1
 [B,E]2 [EG]2- [EG][EG] [EA]2 | [EG]2 [EF]2 [DG]2 E2 | [Ec]2 [DB]2 [EG]2 [CG]2 | [CF]2 [DF]6 | %4
w: By~Thomas~Worsley~Staniforth~(1845\-1909( * * * *||||
 [DB]2 [Ee]2- [Ee][Ee] [Ed]2 | [Fc]2 [FB]2 [DG]2 E2 | [EF]2 [EG]2 AG F2- | FG E6- | E2 z2 z4 |] %9
w: |||||
V:2
 x8 | x8 | x8 | x8 | x8 | x8 | z4 E2 E2 | D2 z2 z4 | x8 |] %9
V:3
 G,2 B,2- B,B, C2 | B,2 B,2 A,2 G,2 | A,2 F,2 E,2 G,2 | =A,2 B,6 | B,2 B,2- B,B,[K:treble] E2 | %5
 E2 D2 B,2 G,2 | =A,2 B,2 CB, A,2 | A,2 G,6- | G,2 z2 z4 |] %9
V:4
 E,2 E,2- E,E, E,2 | E,2 B,,2 B,,2 C,2 | A,,2 B,,2 C,2 E,2 | F,2 B,,6 | A,2 G,2- G,G, A,2 | %5
 =A,2 B,2 B,,2 C,2 | C,2 B,,2 A,,B,, C,2 | B,,2 E,6- | E,2 z2 z4 |] %9

